src/assets/selectIconsSpells/buff_3.svg

<svg xmlns="http://www.w3.org/2000/svg" viewBox="0 0 512 512"><path d="M0 0h512v512H0z"/><path fill="#fff" d="M256 28l-32 128c-32-16-64-48-96-96 0 48 0 96 32 128-32 17-64 0-96-32 0 32 0 80 48 112-32 16-64 0-80-32 0 48 16 96 48 128-16 16-48 0-64-16 0 64 48 112 112 144h76.8l16.7-68.6-17.2-86.1-97.9 5s20.3-75.2 34.9-103.7c5-9.6 7.2-18 20-18.3 11.3 0 20.4 9.8 20.4 21.9 0 12-9.1 21.8-20.4 21.8-2.3 0-4.6-.5-6.6-1.3l-5.1 46.8c29.6-8.9 56.9-18.8 84-30.9 0-.1-.1-.2-.1-.3-6.2-8.8-10.4-21.5-10.4-35.7 0-14.1 4.1-26.8 10.4-35.7 6.1-8.9 14.1-13.7 22.5-13.7 8.5 0 16.5 4.8 22.6 13.7 6.2 8.9 10.2 21.6 10.2 35.7 0 14.2-4 26.9-10.2 35.7-.1.3-.5.7-.6.9 27.3 12.1 56.1 20.6 84.3 30.3l-5-46.8c-2.2.8-4.3 1.3-6.7 1.3-11.2 0-20.3-9.8-20.3-21.8 0-12.1 9.1-21.9 20.3-21.9 12.8.3 15.2 8.7 20 18.3 14.8 28.5 35 103.7 35 103.7l-97.9-5-17.2 86.1 16.7 68.6H384c64-32 112-80 112-144-16 16-48 32-64 16 32-32 48-80 48-128-16 32-48 48-80 32 48-32 48-80 48-112-32 32-64 48-96 32 32-32 32-80 32-128-32 48-64 80-96 96z"/></svg>

<?xml version="1.0" encoding="UTF-8" standalone="no"?>
<!DOCTYPE svg PUBLIC "-//W3C//DTD SVG 1.1//EN" "http://www.w3.org/Graphics/SVG/1.1/DTD/svg11.dtd">
<svg width="100%" height="100%" viewBox="0 0 512 512" version="1.1" xmlns="http://www.w3.org/2000/svg" xmlns:xlink="http://www.w3.org/1999/xlink" xml:space="preserve" xmlns:serif="http://www.serif.com/" style="fill-rule:evenodd;clip-rule:evenodd;stroke-linejoin:round;stroke-miterlimit:2;">
    <rect x="0" y="0" width="512" height="512" style="fill-rule:nonzero;"/>
    <path d="M256,28L224,156C192,140 160,108 128,60C128,108 128,156 160,188C128,205 96,188 64,156C64,188 64,236 112,268C80,284 48,268 32,236C32,284 48,332 80,364C64,380 32,364 16,348C16,412 64,460 128,492L204.8,492L221.5,423.4L204.3,337.3L106.4,342.3C106.4,342.3 126.7,267.1 141.3,238.6C146.3,229 148.5,220.6 161.3,220.3C172.6,220.3 181.7,230.1 181.7,242.2C181.7,254.2 172.6,264 161.3,264C159,264 156.7,263.5 154.7,262.7L149.6,309.5C179.2,300.6 206.5,290.7 233.6,278.6C233.6,278.5 233.5,278.4 233.5,278.3C227.3,269.5 223.1,256.8 223.1,242.6C223.1,228.5 227.2,215.8 233.5,206.9C239.6,198 247.6,193.2 256,193.2C264.5,193.2 272.5,198 278.6,206.9C284.8,215.8 288.8,228.5 288.8,242.6C288.8,256.8 284.8,269.5 278.6,278.3C278.5,278.6 278.1,279 278,279.2C305.3,291.3 334.1,299.8 362.3,309.5L357.3,262.7C355.1,263.5 353,264 350.6,264C339.4,264 330.3,254.2 330.3,242.2C330.3,230.1 339.4,220.3 350.6,220.3C363.4,220.6 365.8,229 370.6,238.6C385.4,267.1 405.6,342.3 405.6,342.3L307.7,337.3L290.5,423.4L307.2,492L384,492C448,460 496,412 496,348C480,364 448,380 432,364C464,332 480,284 480,236C464,268 432,284 400,268C448,236 448,188 448,156C416,188 384,204 352,188C384,156 384,108 384,60C352,108 320,140 288,156L256,28Z" style="fill:rgb(255,150,0);fill-rule:nonzero;"/>
</svg>
